img/providers/squares/add.svg

<?xml version="1.0" encoding="UTF-8" standalone="no"?>
<!-- Created with Inkscape (http://www.inkscape.org/) -->

<svg
   xmlns:dc="http://purl.org/dc/elements/1.1/"
   xmlns:cc="http://creativecommons.org/ns#"
   xmlns:rdf="http://www.w3.org/1999/02/22-rdf-syntax-ns#"
   xmlns:svg="http://www.w3.org/2000/svg"
   xmlns="http://www.w3.org/2000/svg"
   xmlns:sodipodi="http://sodipodi.sourceforge.net/DTD/sodipodi-0.dtd"
   xmlns:inkscape="http://www.inkscape.org/namespaces/inkscape"
   width="40"
   height="40"
   id="svg4676"
   version="1.1"
   inkscape:version="0.48.4 r9939"
   sodipodi:docname="add.svg">
  <defs
     id="defs4678" />
  <sodipodi:namedview
     id="base"
     pagecolor="#ffffff"
     bordercolor="#666666"
     borderopacity="1.0"
     inkscape:pageopacity="0.0"
     inkscape:pageshadow="2"
     inkscape:zoom="13.7625"
     inkscape:cx="52.245656"
     inkscape:cy="21.949643"
     inkscape:document-units="px"
     inkscape:current-layer="layer1"
     showgrid="false"
     borderlayer="true"
     inkscape:showpageshadow="false"
     inkscape:window-width="2560"
     inkscape:window-height="1391"
     inkscape:window-x="0"
     inkscape:window-y="25"
     inkscape:window-maximized="1" />
  <metadata
     id="metadata4681">
    <rdf:RDF>
      <cc:Work
         rdf:about="">
        <dc:format>image/svg+xml</dc:format>
        <dc:type
           rdf:resource="http://purl.org/dc/dcmitype/StillImage" />
        <dc:title />
      </cc:Work>
    </rdf:RDF>
  </metadata>
  <g
     inkscape:label="Capa 1"
     inkscape:groupmode="layer"
     id="layer1"
     transform="translate(0,-1012.3622)">
    <path
       style="font-size:49.26108551px;font-style:normal;font-variant:normal;font-weight:bold;font-stretch:normal;text-align:start;line-height:100%;letter-spacing:0px;word-spacing:0px;writing-mode:lr-tb;text-anchor:start;fill:#b3b3b3;fill-opacity:1;stroke:none;font-family:MozTT;-inkscape-font-specification:MozTT Bold"
       d="M 17.34375 10 L 17.34375 17.53125 L 10 17.53125 L 10 22.5 L 17.34375 22.5 L 17.34375 30 L 22.65625 30 L 22.65625 22.5 L 30 22.5 L 30 17.53125 L 22.65625 17.53125 L 22.65625 10 L 17.34375 10 z "
       transform="translate(0,1012.3622)"
       id="text4570" />
  </g>
</svg>

<svg xmlns="http://www.w3.org/2000/svg" viewBox="0 0 40 40">
<g transform="translate(0 -1012.3622)">
<path fill="#b3b3b3" word-spacing="0" line-height="100%" d="m17.3438,10v7.5312h-7.3438v4.9688h7.3438v7.5h5.3125v-7.5h7.3438v-4.9688h-7.3438v-7.5312h-5.3125z" letter-spacing="0" transform="translate(0 1012.3622)"/>
</g>
</svg>
